icons/php2.svg

<!--
  - The MIT License (MIT)
  -
  - Copyright (c) 2015-2024 Elior "Mallowigi" Boukhobza
  -
  - Permission is hereby granted, free of charge, to any person obtaining a copy
  - of this software and associated documentation files (the "Software"), to deal
  - in the Software without restriction, including without limitation the rights
  - to use, copy, modify, merge, publish, distribute, sublicense, and/or sell
  - copies of the Software, and to permit persons to whom the Software is
  - furnished to do so, subject to the following conditions:
  -
  - The above copyright notice and this permission notice shall be included in all
  - copies or substantial portions of the Software.
  -
  - THE SOFTWARE IS PROVIDED "AS IS", WITHOUT WARRANTY OF ANY KIND, EXPRESS OR
  - IMPLIED, INCLUDING BUT NOT LIMITED TO THE WARRANTIES OF MERCHANTABILITY,
  - FITNESS FOR A PARTICULAR PURPOSE AND NONINFRINGEMENT. IN NO EVENT SHALL THE
  - AUTHORS OR COPYRIGHT HOLDERS BE LIABLE FOR ANY CLAIM, DAMAGES OR OTHER
  - LIABILITY, WHETHER IN AN ACTION OF CONTRACT, TORT OR OTHERWISE, ARISING FROM,
  - OUT OF OR IN CONNECTION WITH THE SOFTWARE OR THE USE OR OTHER DEALINGS IN THE
  - SOFTWARE.
  -
  -->

<svg  version="1.1" xmlns="http://www.w3.org/2000/svg" x="0px" y="0px" viewBox="0 0 512 512" width="16px"
     height="16px">
  <path fill="#7477ae" data-iconColor="PHP Other"
        d="M128.6110687,183.2014923H38.8153114L0,379.7449951h46.1030731l9.7094841-50.9464722H99.493927c41.2370148,2.4217224,87.3627319-31.5501709,87.3627319-89.7844543C186.8566589,205.0421753,167.4263763,185.6232147,128.6110687,183.2014923z M94.6278915,292.4048767H65.4994431l12.1312027-72.7871857h31.5501709c16.9746246,0,29.1284485,7.2877655,29.1284485,21.8406982C135.8875427,282.7180481,116.4685745,289.9831543,94.6278915,292.4048767z M291.1714172,183.2128296l-43.6813812-0.0113373l9.7095184-50.9465027h-46.1030884l-38.8153076,196.5435333h46.1030731l21.840683-109.1807861h36.3935852c16.9972534,0,16.9972534,7.2877655,14.5529175,19.4189758l-16.9746399,89.7844543h48.5248108l16.9746399-99.493927C344.5396729,205.0648346,329.9867249,185.6345367,291.1714172,183.2128296z M453.7543945,183.2014923h-89.7958069L325.14328,379.7449951h46.1030884l9.7095032-50.9464722h43.681366C465.8969116,331.2202454,512,297.2483521,512,239.0140686C512,205.0421753,492.5697021,185.6232147,453.7543945,183.2014923z M419.7711487,292.4048767h-29.128479l12.1311951-72.7871857h31.5501404c16.9972534,0,29.128479,7.2877655,29.128479,21.8406982C461.0307617,282.7180481,441.6117859,289.9831543,419.7711487,292.4048767z"/>
</svg>

<svg xmlns="http://www.w3.org/2000/svg" viewBox="0 0 512 512"><path fill="#7477ae" d="M128.611 183.201H38.815L0 379.745h46.103l9.71-50.946h43.68c41.238 2.421 87.364-31.55 87.364-89.785 0-33.972-19.43-53.39-58.246-55.813M94.628 292.405H65.499l12.132-72.787h31.55c16.974 0 29.128 7.287 29.128 21.84-2.421 41.26-21.84 48.525-43.681 50.947M291.17 183.213l-43.681-.012 9.71-50.946h-46.104L172.28 328.799h46.103l21.84-109.181h36.394c16.998 0 16.998 7.288 14.553 19.419l-16.974 89.784h48.525l16.974-99.494c4.844-24.262-9.71-43.692-48.525-46.114m162.583-.012H363.96l-38.816 196.544h46.103l9.71-50.946h43.681c41.26 2.421 87.363-31.55 87.363-89.785 0-33.972-19.43-53.39-58.246-55.813m-33.983 109.204h-29.128l12.13-72.787h31.551c16.997 0 29.128 7.287 29.128 21.84-2.421 41.26-21.84 48.525-43.68 50.947" data-iconColor="PHP Other"/></svg>
